X:1
T:Trinity (Stone), 11.12.12.10
T:Trinity (Stone), 11.12.12.10
T:Alfred Stone, 1863
T:Public Domain Courtesy of the Cyber Hymnal™
C:Alfred Stone, 1863
Z:Public Domain
Z:Courtesy of the Cyber Hymnal™
%%score ( 1 2 ) ( 3 4 )
L:1/8
Q:1/4=110
M:4/4
K:F
V:1 treble 
V:2 treble 
V:3 bass 
V:4 bass 
V:1
 [CF]2 [CF]2 [FA]2 [FA]2 | [EG]4 [CF]4 | [Af]4 [Fc]2 [FA]2 | d4 [Ac]4 | [Ac]2 [Ac]2 [GB]2 [FA]2 | %5
 d4 [Ac]2 [Ac]2 | [GB]2 [FA]2 [DG]2 [DF]2 | [CE]8 | [FA]2 [FA]2 [EG]2 [EG]2 | [DF]4 [DF]4 | %10
 [Af]2 [Af]2 [Fc]2 [FA]2 | d4 [Ac]4 | [CF]4 [EG]2 [FA]2 | [GB]4 [FA]4 | [FA]2 [DG]2 [CF]2 [B,E]2 | %15
 [A,F]8 |] %16
V:2
 x8 | x8 | x8 | (F2 G2) x4 | x8 | (F2 G2) x4 | x8 | x8 | x8 | x8 | x8 | (F2 G2) x4 | x8 | x8 | x8 | %15
 x8 |] %16
V:3
 [F,A,]2 [F,A,]2 [F,C]2 [F,C]2 | [C,B,]4 [F,A,]4 | [F,C]4 A,2 [F,C]2 | (D2 E2) [F,F]4 | %4
 [F,A,]2 [F,A,]2 [G,B,]2 [A,C]2 | (D2 E2) [F,F]2 [F,A,]2 | [G,B,]2 [A,C]2 [B,D]2 [=B,D]2 | [CE]8 | %8
 [F,C]2 [F,C]2 [C,B,]2 [C,B,]2 | [D,A,]4 [D,A,]4 | [F,A,]2 [F,A,]2 [A,C]2 [F,C]2 | %11
 (B,2 D2) [F,E]4 | [A,C]4 [G,B,]2 [F,A,]2 | [E,G,]4 [F,A,]4 | [A,,C]2 [B,,B,]2 [C,A,]2 [C,G,]2 | %15
 [F,,F,]8 |] %16
V:4
 x8 | x8 | x4 A,2 x2 | B,4 x4 | x8 | B,4 x4 | x8 | x8 | x8 | x8 | x8 | G,4 x4 | x8 | x8 | x8 | %15
 x8 |] %16

